src/24/actions/tools-check-spelling.svg

<svg xmlns="http://www.w3.org/2000/svg" viewBox="0 0 24 24">
  <defs id="defs3051">
    <style type="text/css" id="current-color-scheme">
      .ColorScheme-Text {
        color:#5d656b;
      }
      .ColorScheme-PositiveText {
        color:#27ae60;
      }
      </style>
  </defs>
  <path 
     style="fill:currentColor;fill-opacity:1;stroke:none" 
     d="M 11.146484 4 L 5.9296875 18 L 7.6171875 18 L 9.2871094 13.570312 L 14.847656 13.570312 L 16.382812 18 L 18.070312 18 L 13.140625 4 L 11.146484 4 z M 12.162109 5.6113281 L 14.291016 12.285156 L 9.8046875 12.285156 L 12.162109 5.6113281 z "
     class="ColorScheme-Text"
     />
  <path
     style="fill:currentColor;fill-opacity:1;stroke:none" 
     class="ColorScheme-PositiveText"
     d="M 4 19 L 4 20 L 20 20 L 20 19 L 4 19 z "
      />
</svg>

<svg xmlns="http://www.w3.org/2000/svg" viewBox="0 0 24 24"><path d="M11.146 4L5.93 18h1.687l1.67-4.43h5.56L16.384 18h1.687L13.14 4h-1.994zm1.016 1.611l2.129 6.674H9.805l2.357-6.674z" fill="currentColor" color="#5d656b"/><path d="M4 19v1h16v-1H4z" fill="currentColor" color="#27ae60"/></svg>
